X:269
T:Jack
Z: id:dc-reel-58
M:C
L:1/8
K:G Major
EFE|DEF G2D|A2B c2d|f2d fed Bcd|edc Bcd:|!
afd Add|gdc B2A|B2B g3|ecA A2g:|a3f g2:|!
A|Be
T:Dusty My Hammy
Z: id:dc-reel-36
M:C
L:1/8
K:G Major
AF|G2FG AGGF|G2AF GBdg|eded cAA2|B2AG E2DE|!
DGBd cBA|G2G AGE|D2G G2D|!
G2D G2B|cBc eag|dBA A2G|ABA A2:|!
B|d2e f2d|e2c fed|Bee d3:|!
Aff|g3 a|g3 g3|fed efg|fdf ecA|G2G Bde|GBG DFA|!
GdB A3|BdB AGA|Bed cAF|AcB AGA|B2G E2D|!
G2A B2e|g2f g2d|cAF G2:|!

